src/images/git-quad-logo_white.svg

<svg xmlns="http://www.w3.org/2000/svg" xml:space="preserve" style="fill-rule:evenodd;clip-rule:evenodd;stroke-linejoin:round;stroke-miterlimit:2" viewBox="0 0 40 40"><g style="fill:#fff"><path d="M111.78 51.977 62.035 2.238a7.335 7.335 0 0 0-10.374 0l-10.329 10.33L54.434 25.67c3.046-1.028 6.537-.339 8.964 2.089a8.721 8.721 0 0 1 2.07 9.019l12.628 12.628c3.055-1.053 6.58-.373 9.019 2.071a8.726 8.726 0 0 1 0 12.345 8.729 8.729 0 0 1-12.349 0 8.734 8.734 0 0 1-1.9-9.494L61.089 42.551l-.001 30.991a8.805 8.805 0 0 1 2.309 1.651c3.41 3.409 3.41 8.933 0 12.348-3.41 3.409-8.938 3.409-12.345 0-3.41-3.415-3.41-8.939 0-12.348a8.743 8.743 0 0 1 2.859-1.905V42.009a8.614 8.614 0 0 1-2.859-1.905c-2.583-2.581-3.205-6.372-1.881-9.544L36.255 17.642 2.149 51.747a7.34 7.34 0 0 0 0 10.378l49.742 49.739a7.337 7.337 0 0 0 10.376 0l49.512-49.504a7.341 7.341 0 0 0 0-10.379" style="fill:#fff;fill-rule:nonzero" transform="translate(0 -.03) scale(.3511)"/></g></svg>

<?xml version="1.0" encoding="UTF-8" standalone="no"?>
<svg
   width="100%"
   height="100%"
   viewBox="0 0 40 40"
   version="1.1"
   xml:space="preserve"
   style="fill-rule:evenodd;clip-rule:evenodd;stroke-linejoin:round;stroke-miterlimit:2;"
   id="svg354"
   sodipodi:docname="git-quad-logo_white.svg"
   inkscape:version="1.1.2 (b8e25be833, 2022-02-05)"
   xmlns:inkscape="http://www.inkscape.org/namespaces/inkscape"
   xmlns:sodipodi="http://sodipodi.sourceforge.net/DTD/sodipodi-0.dtd"
   xmlns="http://www.w3.org/2000/svg"
   xmlns:svg="http://www.w3.org/2000/svg"><defs
   id="defs358" /><sodipodi:namedview
   id="namedview356"
   pagecolor="#505050"
   bordercolor="#eeeeee"
   borderopacity="1"
   inkscape:pageshadow="0"
   inkscape:pageopacity="0"
   inkscape:pagecheckerboard="0"
   showgrid="false"
   inkscape:zoom="19.95"
   inkscape:cx="11.278195"
   inkscape:cy="20.025063"
   inkscape:window-width="1920"
   inkscape:window-height="970"
   inkscape:window-x="0"
   inkscape:window-y="27"
   inkscape:window-maximized="1"
   inkscape:current-layer="svg354" />
    <g
   transform="matrix(0.3511,0,0,0.351099,-8.77751e-05,-0.0305683)"
   id="g352"
   style="fill:#ffffff">
        <g
   id="g350"
   style="fill:#ffffff">
            <path
   d="M111.78,51.977L62.035,2.238C59.173,-0.627 54.527,-0.627 51.661,2.238L41.332,12.568L54.434,25.67C57.48,24.642 60.971,25.331 63.398,27.759C65.837,30.201 66.522,33.722 65.468,36.778L78.096,49.406C81.151,48.353 84.676,49.033 87.115,51.477C90.526,54.887 90.526,60.412 87.115,63.822C83.704,67.234 78.179,67.234 74.766,63.822C72.202,61.256 71.567,57.488 72.866,54.328L61.089,42.551L61.088,73.542C61.92,73.954 62.704,74.503 63.397,75.193C66.807,78.602 66.807,84.126 63.397,87.541C59.987,90.95 54.459,90.95 51.052,87.541C47.642,84.126 47.642,78.602 51.052,75.193C51.895,74.352 52.87,73.715 53.911,73.288L53.911,42.009C52.87,41.584 51.896,40.952 51.052,40.104C48.469,37.523 47.847,33.732 49.171,30.56L36.255,17.642L2.149,51.747C-0.716,54.614 -0.716,59.26 2.149,62.125L51.891,111.864C54.755,114.729 59.4,114.729 62.267,111.864L111.779,62.36C114.644,59.494 114.644,54.847 111.779,51.981"
   style="fill:#ffffff;fill-rule:nonzero"
   id="path348" />
        </g>
    </g>
</svg>
